img/assets/sectionServices/inauguration.svg

<?xml version="1.0" encoding="UTF-8"?>
<svg width="80px" height="81px" viewBox="0 0 80 81" version="1.1" xmlns="http://www.w3.org/2000/svg" xmlns:xlink="http://www.w3.org/1999/xlink">
    <!-- Generator: Sketch 61 (89581) - https://sketch.com -->
    <title>inauguration</title>
    <desc>Created with Sketch.</desc>
    <g id="Inner-Pages" stroke="none" stroke-width="1" fill="none" fill-rule="evenodd">
        <g id="036--Services-2" transform="translate(-1310.000000, -1111.000000)" fill="#888888" fill-rule="nonzero">
            <g id="section-SERVICES" transform="translate(400.000000, 618.000000)">
                <g id="service-6" transform="translate(780.000000, 390.000000)">
                    <g id="content" transform="translate(80.000000, 103.000000)">
                        <g id="inauguration" transform="translate(50.000000, 0.000000)">
                            <path d="M16,17.4166667 C10.2133333,17.4166667 5.33333333,21.0833333 5.33333333,25.4166667 C5.33333333,29.75 10.2133333,33.4166667 16,33.4166667 C21.7866667,33.4166667 26.6666667,29.75 26.6666667,25.4166667 C26.6666667,21.0833333 21.7866667,17.4166667 16,17.4166667 Z M16,30.75 C11.7333333,30.75 8,28.2566667 8,25.4166667 C8,22.5766667 11.7333333,20.0833333 16,20.0833333 C20.2666667,20.0833333 24,22.5766667 24,25.4166667 C24,28.2566667 20.2666667,30.75 16,30.75 Z" id="Shape"></path>
                            <circle id="Oval" cx="36" cy="40.0833333" r="1.33333333"></circle>
                            <path d="M0,54.75 C0,62.0966667 7.17333333,68.0833333 16,68.0833333 C27.76,68.0833333 35.3866667,57.8833333 30.52,49.15 L35.8533333,46.3633333 L47.8533333,52.9233333 C42.16,57.7766667 38.08,64.0833333 37.4,77.07 C37.3410403,78.0505988 37.8259917,78.984202 38.6621563,79.4998367 C39.4983207,80.0154715 40.5502677,80.0296224 41.4,79.5366667 L45.3333333,77.2433333 L49.3333333,79.6833333 C50.1275892,80.1452975 51.1037257,80.1658241 51.9166999,79.7376579 C52.7296739,79.3094916 53.2649552,78.4929513 53.3333333,77.5766667 C53.4185083,74.3591504 54.1295227,71.1890223 55.4266667,68.2433333 C56.8533333,65.5766667 60.6,63.1766667 63.84,60.8166667 C67.4133333,62.03 73.0933333,63.59 76.6,62.2433333 C78.7333333,61.4166667 79.1466667,60.0833333 79.8,58.63 C80.0859472,57.9915411 79.8298289,57.2406489 79.2133333,56.91 L72.2666667,53.1766667 C75.8266667,48.9766667 77.52,44.5633333 77.3333333,40.0833333 C77.3926879,35.3613424 75.6963696,30.7855595 72.5733333,27.2433333 L79.3466667,23.1766667 C79.9240729,22.8255581 80.1474977,22.0979951 79.8666667,21.4833333 L79.32,20.2833333 C77.7466667,16.71 72.6533333,16.4033333 63.9466667,19.3233333 C60.6,16.8966667 56.92,14.4833333 55.4933333,11.87 C54.1965141,8.92420429 53.4855143,5.75414077 53.4,2.53666667 C53.33062,1.60655987 52.7803345,0.780293587 51.9488544,0.357738133 C51.1173743,-0.06481732 50.1255488,-0.0222467733 49.3333333,0.47 L45.3333333,2.93666667 L41.44,0.63 C40.5944964,0.14023832 39.5488432,0.15211448 38.7146815,0.660953173 C37.8805196,1.16979188 37.3914484,2.0940976 37.44,3.07 C38.12,15.99 42.2,22.39 47.88,27.23 L35.88,33.8033333 L30.5466667,31.03 C35.4266667,22.2166667 27.6666667,12.0833333 16,12.0833333 C7.17333333,12.0833333 0,18.07 0,25.4166667 C0,34.6566667 10.92,40.8433333 20.8533333,38.11 L24.4533333,40.0833333 L20.8533333,42.0566667 C10.8533333,39.31 0,45.55 0,54.75 L0,54.75 Z M57.8933333,35.0033333 C61.1733333,37.9233333 61.3333333,39.2033333 61.3333333,39.5766667 L61.3333333,40.63 C61.3333333,41.0166667 61.1466667,42.2833333 57.7066667,45.31 L48,40.0833333 L57.8933333,35.0033333 Z M53.16,67.0033333 C51.36,70.3233333 50.88,75.4166667 50.76,77.4433333 L46.76,75.0033333 C45.9148467,74.4955651 44.8584867,74.4955651 44.0133333,75.0033333 L40.1333333,77.2833333 C40.2603644,71.9604529 41.5289628,66.7269165 43.8533333,61.9366667 C45.5222944,59.0025331 47.7564879,56.4284521 50.4266667,54.3633333 C58.8933333,59.0166667 57.76,58.4833333 60.9733333,59.7633333 C58.1866667,61.6833333 54.7866667,64.0833333 53.16,66.9633333 L53.16,67.0033333 Z M75.72,59.79 C72.0666667,61.1233333 64.04,58.0566667 63.9066667,58.03 C59.0133333,56.27 60.24,56.6966667 38.76,44.9366667 L45.1466667,41.63 L76.9066667,58.75 C76.6642768,59.2314047 76.2355235,59.5927137 75.72,59.75 L75.72,59.79 Z M76.96,21.59 L70.8133333,25.2833333 C69.4735712,23.9062799 68.0485368,22.6148424 66.5466667,21.4166667 C69.3333333,20.51 75.76,18.87 76.96,21.55 L76.96,21.59 Z M43.8,18.2966667 C41.4762364,13.4967283 40.2077723,8.25465211 40.08,2.92333333 L44,5.24333333 C44.8250696,5.71968745 45.8415971,5.71968745 46.6666667,5.24333333 L50.6666667,2.77666667 C50.8,4.81666667 51.28,9.91 53.08,13.23 C54.5733333,15.8966667 57.44,18.03 60.4933333,20.23 C67.6,25.2966667 75.0133333,31.3366667 74.6666667,40.0833333 C74.8266667,44.0833333 73.3333333,47.9766667 69.9333333,51.83 L60.2,46.6033333 C64.44,42.75 64,41.1766667 64,39.7233333 C64.24,36.0833333 57.8933333,31.4566667 54.88,29.27 C50.4666667,26.0566667 46.4533333,23.19 43.8,18.2966667 L43.8,18.2966667 Z M22.1466667,35.7766667 C21.5389096,35.4462952 20.8265556,35.3650199 20.16,35.55 C11.88,37.79 2.66666667,32.8566667 2.66666667,25.4166667 C2.66666667,19.5366667 8.65333333,14.75 16,14.75 C23.3466667,14.75 29.3333333,19.5366667 29.3333333,25.4166667 C29.3333333,29.1766667 27.3466667,29.75 28,31.79 C28.2028077,32.4919983 28.6847944,33.0800219 29.3333333,33.4166667 L33.12,35.3766667 L27.2666667,38.59 L22.1466667,35.7766667 Z M50.1466667,29.0433333 C52.3466667,30.7233333 53.7733333,31.71 55.6933333,33.1633333 L29.3333333,46.75 C28.6875984,47.0836016 28.2060104,47.6663231 28,48.3633333 C27.4,50.4033333 29.3333333,50.95 29.3333333,54.7233333 C29.3333333,60.6033333 23.3466667,65.39 16,65.39 C8.65333333,65.39 2.66666667,60.63 2.66666667,54.75 C2.66666667,47.2033333 12,42.39 20.1466667,44.6166667 C20.8115107,44.8057147 21.5237853,44.7292288 22.1333333,44.4033333 C74.1333333,15.9233333 34.6666667,37.5233333 50.1066667,29.0433333 L50.1466667,29.0433333 Z" id="Shape"></path>
                            <path d="M5.33333333,54.75 C5.33333333,59.0833333 10.2133333,62.75 16,62.75 C21.7866667,62.75 26.6666667,59.0833333 26.6666667,54.75 C26.6666667,51.4833333 24,48.9366667 21.04,47.71 C13.64,44.71 5.33333333,49.0833333 5.33333333,54.75 Z M22.8,52.0833333 C26.2933333,55.7633333 21.6266667,60.0833333 16,60.0833333 C11.7333333,60.0833333 8,57.59 8,54.75 C8,51.91 11.7333333,49.4166667 16,49.4166667 C18.5348088,49.3448815 20.9897127,50.3075888 22.8,52.0833333 Z" id="Shape"></path>
                        </g>
                    </g>
                </g>
            </g>
        </g>
    </g>
</svg>

<svg xmlns="http://www.w3.org/2000/svg" width="80" height="81" viewBox="0 0 80 81"><title>inauguration</title><g fill="#888" fill-rule="nonzero"><path d="M16 17.417c-5.787 0-10.667 3.666-10.667 8 0 4.333 4.88 8 10.667 8s10.667-3.667 10.667-8c0-4.334-4.88-8-10.667-8zm0 13.333c-4.267 0-8-2.493-8-5.333 0-2.84 3.733-5.334 8-5.334 4.267 0 8 2.494 8 5.334 0 2.84-3.733 5.333-8 5.333z"/><circle cx="36" cy="40.083" r="1.333"/><path d="M0 54.75c0 7.347 7.173 13.333 16 13.333 11.76 0 19.387-10.2 14.52-18.933l5.333-2.787 12 6.56C42.16 57.777 38.08 64.083 37.4 77.07a2.667 2.667 0 0 0 4 2.467l3.933-2.294 4 2.44a2.667 2.667 0 0 0 4-2.106 24.787 24.787 0 0 1 2.094-9.334c1.426-2.666 5.173-5.066 8.413-7.426 3.573 1.213 9.253 2.773 12.76 1.426 2.133-.826 2.547-2.16 3.2-3.613.286-.638.03-1.39-.587-1.72l-6.946-3.733c3.56-4.2 5.253-8.614 5.066-13.094a19.053 19.053 0 0 0-4.76-12.84l6.774-4.066c.577-.351.8-1.079.52-1.694l-.547-1.2c-1.573-3.573-6.667-3.88-15.373-.96-3.347-2.426-7.027-4.84-8.454-7.453A24.8 24.8 0 0 1 53.4 2.537 2.667 2.667 0 0 0 49.333.47l-4 2.467L41.44.63a2.667 2.667 0 0 0-4 2.44c.68 12.92 4.76 19.32 10.44 24.16l-12 6.573-5.333-2.773c4.88-8.813-2.88-18.947-14.547-18.947-8.827 0-16 5.987-16 13.334 0 9.24 10.92 15.426 20.853 12.693l3.6 1.973-3.6 1.974C10.853 39.31 0 45.55 0 54.75zm57.893-19.747c3.28 2.92 3.44 4.2 3.44 4.574v1.053c0 .387-.186 1.653-3.626 4.68L48 40.083l9.893-5.08zm-4.733 32c-1.8 3.32-2.28 8.414-2.4 10.44l-4-2.44a2.667 2.667 0 0 0-2.747 0l-3.88 2.28a37.187 37.187 0 0 1 3.72-15.346 25.533 25.533 0 0 1 6.574-7.574c8.466 4.654 7.333 4.12 10.546 5.4-2.786 1.92-6.186 4.32-7.813 7.2v.04zm22.56-7.213c-3.653 1.333-11.68-1.733-11.813-1.76-4.894-1.76-3.667-1.333-25.147-13.093l6.387-3.307 31.76 17.12a1.973 1.973 0 0 1-1.187 1v.04zm1.24-38.2l-6.147 3.693a45.827 45.827 0 0 0-4.266-3.866c2.786-.907 9.213-2.547 10.413.133v.04zM43.8 18.297a37.333 37.333 0 0 1-3.72-15.374L44 5.243a2.667 2.667 0 0 0 2.667 0l4-2.466c.133 2.04.613 7.133 2.413 10.453 1.493 2.667 4.36 4.8 7.413 7 7.107 5.067 14.52 11.107 14.174 19.853.16 4-1.334 7.894-4.734 11.747L60.2 46.603c4.24-3.853 3.8-5.426 3.8-6.88.24-3.64-6.107-8.266-9.12-10.453-4.413-3.213-8.427-6.08-11.08-10.973zm-21.653 17.48a2.667 2.667 0 0 0-1.987-.227c-8.28 2.24-17.493-2.693-17.493-10.133 0-5.88 5.986-10.667 13.333-10.667s13.333 4.787 13.333 10.667c0 3.76-1.986 4.333-1.333 6.373.203.702.685 1.29 1.333 1.627l3.787 1.96-5.853 3.213-5.12-2.813zm28-6.734c2.2 1.68 3.626 2.667 5.546 4.12L29.333 46.75A2.667 2.667 0 0 0 28 48.363c-.6 2.04 1.333 2.587 1.333 6.36 0 5.88-5.986 10.667-13.333 10.667S2.667 60.63 2.667 54.75c0-7.547 9.333-12.36 17.48-10.133a2.667 2.667 0 0 0 1.986-.214c52-28.48 12.534-6.88 27.974-15.36h.04z"/><path d="M5.333 54.75c0 4.333 4.88 8 10.667 8s10.667-3.667 10.667-8c0-3.267-2.667-5.813-5.627-7.04-7.4-3-15.707 1.373-15.707 7.04zM22.8 52.083c3.493 3.68-1.173 8-6.8 8-4.267 0-8-2.493-8-5.333 0-2.84 3.733-5.333 8-5.333a9.333 9.333 0 0 1 6.8 2.666z"/></g></svg>
